src/24/actions/view-preview.svg

<svg xmlns="http://www.w3.org/2000/svg" viewBox="0 0 24 24">
  <defs id="defs3051">
    <style type="text/css" id="current-color-scheme">
      .ColorScheme-Text {
        color:#5d656b;
      }
      </style>
  </defs>
 <path style="fill:currentColor;fill-opacity:1;stroke:none" 
     d="M 4 4 L 4 20 L 20 20 L 20 4 L 4 4 z M 5 5 L 19 5 L 19 19 L 5 19 L 5 5 z M 8.5 6 C 7.115 6 6 7.115 6 8.5 C 6 9.885 7.115 11 8.5 11 C 9.885 11 11 9.885 11 8.5 C 11 7.115 9.885 6 8.5 6 z M 8.5 7 C 9.331 7 10 7.669 10 8.5 C 10 9.331 9.331 10 8.5 10 C 7.669 10 7 9.331 7 8.5 C 7 7.669 7.669 7 8.5 7 z M 14.994141 11 L 11.648438 14.34375 L 10.306641 13 L 10.300781 13.007812 L 10.292969 13 L 6 17.292969 L 6.7070312 18 L 10.298828 14.408203 L 10.941406 15.050781 L 11.648438 15.757812 L 12.355469 15.050781 L 15 12.40625 L 17.292969 14.699219 L 18 13.992188 L 15.007812 11 L 15 11.007812 L 14.994141 11 z "
     class="ColorScheme-Text"
     />
</svg>

<svg xmlns="http://www.w3.org/2000/svg" viewBox="0 0 24 24"><path d="M4 4v16h16V4H4zm1 1h14v14H5V5zm3.5 1A2.495 2.495 0 0 0 6 8.5C6 9.885 7.115 11 8.5 11S11 9.885 11 8.5 9.885 6 8.5 6zm0 1c.831 0 1.5.669 1.5 1.5S9.331 10 8.5 10 7 9.331 7 8.5 7.669 7 8.5 7zm6.494 4l-3.346 3.344L10.307 13l-.006.008-.008-.008L6 17.293l.707.707 3.592-3.592.642.643.707.707.707-.707L15 12.406l2.293 2.293.707-.707L15.008 11l-.008.008-.006-.008z" fill="currentColor" color="#5d656b"/></svg>
